static/img/icons/socials/small-linkedin.svg

<?xml version="1.0" encoding="UTF-8"?>
<svg width="22px" height="23px" viewBox="0 0 22 23" version="1.1" xmlns="http://www.w3.org/2000/svg" xmlns:xlink="http://www.w3.org/1999/xlink">
    <!-- Generator: Sketch 49.1 (51147) - http://www.bohemiancoding.com/sketch -->
    <defs></defs>
    <g id="Page-1" stroke="none" stroke-width="1" fill="none" fill-rule="evenodd">
        <g id="Landing-page" transform="translate(-515.000000, -7369.000000)" fill="#C7CBFD" fill-rule="nonzero">
            <g id="our-team" transform="translate(390.000000, 6384.000000)">
                <g id="Group-23" transform="translate(0.000000, 146.000000)">
                    <g id="Group-2-Copy" transform="translate(0.000000, 470.000000)">
                        <g id="Group-22">
                            <g id="Group-8" transform="translate(93.000000, 369.000000)">
                                <g id="linkedin" transform="translate(32.000000, 0.000000)">
                                    <path d="M11,22.212177 C4.92486775,22.212177 0,17.2873092 0,11.212177 C0,5.13704474 4.92486775,0.212176991 11,0.212176991 C17.0751322,0.212176991 22,5.13704474 22,11.212177 C22,17.2873092 17.0751322,22.212177 11,22.212177 Z M17.5723912,12.0973066 C17.5723912,9.66878864 16.2754822,8.53855226 14.5456166,8.53855226 C13.148508,8.53855226 12.5253485,9.30720712 12.1759243,9.84487334 L12.1759243,9.87075662 L12.1584727,9.87075662 C12.1631787,9.86232495 12.17063,9.85369719 12.1759243,9.84487334 L12.1759243,8.72424516 L9.54622268,8.72424516 C9.58151806,9.46603631 9.54622268,16.6321741 9.54622268,16.6321741 L12.1757282,16.6321741 L12.1757282,12.2155461 C12.1757282,11.9784788 12.193572,11.7437646 12.2627901,11.5747389 C12.4533851,11.1017809 12.8849692,10.6133321 13.6114656,10.6133321 C14.5634604,10.6133321 14.9430817,11.3388482 14.9430817,12.401239 L14.9430817,16.6323702 L17.5723912,16.6323702 L17.5723912,12.0973066 Z M6.79553638,4.91234456 C5.89609255,4.91234456 5.3076402,5.50275776 5.3076402,6.27847169 C5.3076402,7.03771444 5.87903312,7.64518708 6.76102535,7.64518708 L6.77808478,7.64518708 C7.6951763,7.64518708 8.26539271,7.03771444 8.26539271,6.27847169 C8.2479411,5.50275776 7.6951763,4.91234456 6.79553638,4.91234456 Z M5.46392028,16.6323702 L8.09244536,16.6323702 L8.09244536,8.72424516 L5.46392028,8.72424516 L5.46392028,16.6323702 Z" id="Combined-Shape"></path>
                                </g>
                            </g>
                        </g>
                    </g>
                </g>
            </g>
        </g>
    </g>
</svg>

<svg width="22" height="23" xmlns="http://www.w3.org/2000/svg"><path d="M11 22.212c-6.075 0-11-4.925-11-11s4.925-11 11-11 11 4.925 11 11-4.925 11-11 11zm6.572-10.115c0-2.428-1.297-3.558-3.026-3.558-1.397 0-2.02.768-2.37 1.306v.026h-.018c.005-.009.013-.017.018-.026v-1.12h-2.63c.036.741 0 7.907 0 7.907h2.63v-4.416c0-.238.018-.472.087-.641.19-.473.622-.962 1.348-.962.952 0 1.332.726 1.332 1.788v4.231h2.63v-4.535zM6.796 4.912c-.9 0-1.488.59-1.488 1.366 0 .76.571 1.367 1.453 1.367h.017c.917 0 1.487-.607 1.487-1.367-.017-.775-.57-1.366-1.47-1.366zm-1.332 11.72h2.628V8.724H5.464v7.908z" fill="#C7CBFD"/></svg>
